X: 9303
T: Dancers Delight, The
R: reel
M: 4/4
K: Amajor
eA A/A/A eAce|faec ~B3c|eA A/A/A eAce|faec BAFe|
eA A/A/A eAce|faec ~B3c|eA A/A/A eAce|faec B/B/B cB||
ABce ~a3e|faec BAFE|ABce ~a3e|gbeg afec|
ABce ~a3e|faec BAFE|ABce agae|~f3g agaf||

